X:1
T: The Tailor's Thimble
C:
R:Jig
Q:180
K:D
M:6/8
L:1/16
D2|:D2F2F2 F2E2D2|F2A2A2 A4dc|B2d2d2 A2d2d2|B2d2d2 A2F2E2|
D2F2F2 F2E2D2|F2A2A2 A4c2|Bcd2B2 A2G2F2|1E2F2E2 E4D2:|2E2F2E2 D4e2|
|:f2g2f2 f2e2d2|f2a2a2 a4f2|e2f2e2 e2d2B2|d2e2f2 g4g2|
f2g2f2 e2f2e2|d2e2d2 c2B2A2|Bcd2B2 A2G2F2|1E2F2E2 E4e2:|2E2F2E2 D4||
